X: 472
T: A Welcome Christmas Morning
R: waltz
M: 3/4
K: Amajor
E2|c6|c4 E2|c4 B2|A6|A6|c4 B2|A4 E2|F2 E2 E2|
F6|F6|E4 A,2|C6|B,6|B4 A2|G2 E4|EF GA B=c|
c6|c4 E2|c4 B2|A6|A6|c4 B2|A4 E2|F2 E4|
F6|A4 d2|c4 B2|c2 A4|G4 E2|F4 G2|A6-|A4||

